X: 43449
T: Ye Banks And Braes
R: waltz
M: 3/4
K: Dmajor
A2|d4 d2|e3 d e2|f2 a2 f2|e3 d e2|f3 e d2|d2 B2 A2|A2 B2 d2|e4 fe|
d3 c d2|e3 d e2|f2 a2 f2|e3 d e2|f2 e2 d2|(3ded B2 A2|(3ABA B2 c2|d4||
f2|a4 b2|a2 f2 d2|a4 b2|a2 f2 d2|a2 f2 d2|(3aba (3fgf (3ded|b2 ba gf|e4 fe|
d2 c2 d2|e3 d e2|f2 a2 f2|e3 d e2|f3 e d2|d2 B2 A2|A2 B2 d2|d4||

